client/public/assets/icons/utility/work_order_type.svg

<?xml version="1.0"?><svg xmlns="http://www.w3.org/2000/svg" width="52" height="52" viewBox="0 0 52 52"><path fill="#fff" d="m39.3 26.9c0 1-0.9 1.9-1.9 1.9h-22.8c-1 0-1.9-0.9-1.9-1.9v-1.9c0-1 0.9-1.9 1.9-1.9h22.9c1 0 1.9 0.9 1.9 1.9v1.9h-0.1z m-3.8 11.4c0 1-0.9 1.9-1.9 1.9h-19c-1 0-1.9-0.9-1.9-1.9v-1.9c0-1 0.9-1.9 1.9-1.9h19.1c1 0 1.9 0.9 1.9 1.9v1.9h-0.1z m-22.8-24.8c0-1 0.9-1.9 1.9-1.9h19.1c1 0 1.9 0.9 1.9 1.9v1.9c0 1-0.9 1.9-1.9 1.9h-19.1c-1 0-1.9-0.9-1.9-1.9v-1.9z m28.5-9.5h-30.4c-3.2 0-5.8 2.6-5.8 5.7v32.4c0 3.1 2.6 5.7 5.7 5.7h30.5c3.1 0 5.7-2.6 5.7-5.7v-32.4c0.1-3.1-2.5-5.7-5.7-5.7z"></path></svg>

<?xml version="1.0" encoding="utf-8"?>
<!-- Generator: Adobe Illustrator 20.0.0, SVG Export Plug-In . SVG Version: 6.00 Build 0)  -->
<svg version="1.1" id="Layer_1" xmlns="http://www.w3.org/2000/svg" xmlns:xlink="http://www.w3.org/1999/xlink" x="0px" y="0px"
	 width="52px" height="52px" viewBox="0 0 52 52" enable-background="new 0 0 52 52" xml:space="preserve">
<path fill="#FFFFFF" d="M39.3,26.9c0,1-0.9,1.9-1.9,1.9H14.6c-1,0-1.9-0.9-1.9-1.9V25c0-1,0.9-1.9,1.9-1.9h22.9c1,0,1.9,0.9,1.9,1.9
	v1.9H39.3z M35.5,38.3c0,1-0.9,1.9-1.9,1.9h-19c-1,0-1.9-0.9-1.9-1.9v-1.9c0-1,0.9-1.9,1.9-1.9h19.1c1,0,1.9,0.9,1.9,1.9v1.9H35.5z
	 M12.7,13.5c0-1,0.9-1.9,1.9-1.9h19.1c1,0,1.9,0.9,1.9,1.9v1.9c0,1-0.9,1.9-1.9,1.9H14.6c-1,0-1.9-0.9-1.9-1.9
	C12.7,15.4,12.7,13.5,12.7,13.5z M41.2,4H10.8C7.6,4,5,6.6,5,9.7v32.4c0,3.1,2.6,5.7,5.7,5.7h30.5c3.1,0,5.7-2.6,5.7-5.7V9.7
	C47,6.6,44.4,4,41.2,4z"/>
</svg>
